svgs/zdfheute.svg

<svg xmlns="http://www.w3.org/2000/svg" viewBox="0 0 192 192"><path d="M92.548 105.673v12.202a7.398 7.398 0 0 0 12.624 5.228 7.4 7.4 0 0 0 2.167-5.228v-12.202m0 12.202v7.396M42.545 95.689v29.582m0-12.203a7.397 7.397 0 0 1 12.624-5.229 7.397 7.397 0 0 1 2.166 5.229v12.203M42.558 65.923h14.79l-14.79 19.598h14.79M81.233 121.573a7.167 7.167 0 0 1-2.636 2.71 7.172 7.172 0 0 1-3.65.988 7.417 7.417 0 0 1-7.395-7.396v-4.807a7.399 7.399 0 0 1 7.395-7.387 7.396 7.396 0 0 1 7.396 7.387v2.589H67.552m52.914-16.27v22.186a3.49 3.49 0 0 0 1.801 3.271 3.501 3.501 0 0 0 1.896.427h1.11m-8.505-19.598h7.765M82.34 73.318a7.399 7.399 0 0 0-7.395-7.387 7.396 7.396 0 0 0-7.396 7.387v4.807a7.4 7.4 0 0 0 2.169 5.225 7.4 7.4 0 0 0 10.453 0 7.4 7.4 0 0 0 2.169-5.225m0 7.396V55.939m14.281 29.582V61.116a5.05 5.05 0 0 1 2.562-4.521 5.059 5.059 0 0 1 2.615-.656 5.756 5.756 0 0 1 5.177 2.219m-14.421 7.765h10.353m45.439 55.65a7.162 7.162 0 0 1-6.286 3.698 7.417 7.417 0 0 1-7.395-7.396v-4.807a7.395 7.395 0 1 1 14.79 0v2.589h-14.79" fill="none" stroke="#000" stroke-width="6" stroke-linecap="round" stroke-linejoin="round"/><path d="M42.545 136.061h14.79" fill="none" stroke="#000" stroke-width="8" stroke-linecap="round"/><path d="M96 16.5a79.529 79.529 0 0 0-56.215 23.285A79.529 79.529 0 0 0 16.5 96a79.529 79.529 0 0 0 23.285 56.215A79.529 79.529 0 0 0 96 175.5a79.529 79.529 0 0 0 56.215-23.285A79.529 79.529 0 0 0 175.5 96a79.529 79.529 0 0 0-23.285-56.215A79.529 79.529 0 0 0 96 16.5Z" fill="none" stroke="#000" stroke-width="8" stroke-linecap="round" stroke-linejoin="round"/></svg>

<svg
    xmlns="http://www.w3.org/2000/svg"
    viewBox="0 0 192 192"
    id="vector">
    <path
        id="path"
        d="M 92.548 105.673 L 92.548 117.875 C 92.549 119.836 93.329 121.717 94.715 123.103 C 96.102 124.489 97.983 125.268 99.944 125.268 C 101.904 125.268 103.786 124.489 105.172 123.103 C 106.558 121.717 107.338 119.836 107.339 117.875 L 107.339 105.673 M 107.339 117.875 L 107.339 125.271 M 42.545 95.689 L 42.545 125.271 M 42.545 113.068 C 42.545 111.108 43.324 109.226 44.711 107.839 C 46.097 106.453 47.979 105.673 49.94 105.673 C 51.901 105.673 53.783 106.453 55.169 107.839 C 56.556 109.226 57.335 111.108 57.335 113.068 L 57.335 125.271"
        fill="none"
        stroke="#000000"
        stroke-width="6"
        stroke-linecap="round"
        stroke-linejoin="round"/>
    <path
        id="path_1"
        d="M 42.558 65.923 L 57.348 65.923 L 42.558 85.521 L 57.348 85.521"
        fill="none"
        stroke="#000000"
        stroke-width="6"
        stroke-linecap="round"
        stroke-linejoin="round"/>
    <path
        id="path_2"
        d="M 81.233 121.573 C 80.613 122.696 79.702 123.632 78.597 124.283 C 77.491 124.933 76.23 125.274 74.947 125.271 C 72.988 125.265 71.109 124.484 69.724 123.098 C 68.339 121.713 67.558 119.834 67.552 117.875 L 67.552 113.068 C 67.554 111.109 68.335 109.229 69.721 107.844 C 71.107 106.459 72.988 105.681 74.947 105.681 C 76.907 105.681 78.788 106.459 80.174 107.844 C 81.56 109.229 82.341 111.109 82.343 113.068 L 82.343 115.657 L 67.552 115.657 M 120.466 99.387 L 120.466 121.573 C 120.426 122.233 120.574 122.89 120.893 123.469 C 121.212 124.048 121.688 124.525 122.267 124.844 C 122.846 125.162 123.504 125.311 124.163 125.271 L 125.273 125.271 M 116.768 105.673 L 124.533 105.673 M 82.34 73.318 C 82.338 71.359 81.557 69.479 80.171 68.094 C 78.785 66.709 76.904 65.931 74.945 65.931 C 72.985 65.931 71.104 66.709 69.718 68.094 C 68.332 69.479 67.551 71.359 67.549 73.318 L 67.549 78.125 C 67.551 80.085 68.332 81.965 69.718 83.35 C 71.104 84.734 72.985 85.513 74.945 85.513 C 76.904 85.513 78.785 84.734 80.171 83.35 C 81.557 81.965 82.338 80.085 82.34 78.125 M 82.34 85.521 L 82.34 55.939 M 96.621 85.521 L 96.621 61.116 C 96.599 60.201 96.825 59.297 97.277 58.501 C 97.728 57.705 98.387 57.046 99.183 56.595 C 99.979 56.144 100.883 55.917 101.798 55.939 C 102.779 55.835 103.77 55.984 104.676 56.373 C 105.583 56.761 106.374 57.376 106.975 58.158 M 92.554 65.923 L 102.907 65.923 M 148.346 121.573 C 147.726 122.696 146.815 123.632 145.709 124.283 C 144.604 124.933 143.343 125.274 142.06 125.271 C 140.101 125.265 138.222 124.484 136.837 123.098 C 135.452 121.713 134.671 119.834 134.665 117.875 L 134.665 113.068 C 134.663 111.506 135.157 109.982 136.074 108.718 C 136.992 107.453 138.287 106.511 139.773 106.028 C 141.259 105.545 142.861 105.545 144.347 106.028 C 145.833 106.511 147.128 107.453 148.046 108.718 C 148.963 109.982 149.457 111.506 149.455 113.068 L 149.455 115.657 L 134.665 115.657"
        fill="none"
        stroke="#000000"
        stroke-width="6"
        stroke-linecap="round"
        stroke-linejoin="round"/>
    <path
        id="path_3"
        d="M 42.545 136.061 L 57.335 136.061"
        fill="none"
        stroke="#000000"
        stroke-width="8"
        stroke-linecap="round"/>
    <path
        id="path_4"
        d="M 96 16.5 C 74.923 16.5 54.688 24.882 39.785 39.785 C 24.882 54.688 16.5 74.923 16.5 96 C 16.5 117.077 24.882 137.312 39.785 152.215 C 54.688 167.118 74.923 175.5 96 175.5 C 117.077 175.5 137.312 167.118 152.215 152.215 C 167.118 137.312 175.5 117.077 175.5 96 C 175.5 74.923 167.118 54.688 152.215 39.785 C 137.312 24.882 117.077 16.5 96 16.5 Z"
        fill="none"
        stroke="#000000"
        stroke-width="8"
        stroke-linecap="round"
        stroke-linejoin="round"/>
</svg>
